dist/svgs/crypto-icons/icons/pot.svg

<?xml version="1.0" encoding="UTF-8" standalone="yes"?>
<svg xmlns="http://www.w3.org/2000/svg" xmlns:xlink="http://www.w3.org/1999/xlink" width="512px" height="512px" viewBox="0 0 384 384" version="1.1">
  <g id="surface1">
    <path style=" stroke:none;fill-rule:nonzero;fill:rgb(0%,0%,0%);fill-opacity:1;" d="M 217.195312 0.0234375 L 78.035156 0.0234375 L 59.207031 96.785156 L 18.964844 96.785156 L 10.269531 142.8125 L 50.246094 142.8125 L 3.382812 383.621094 L 71.875 383.621094 L 98.703125 244.644531 L 200.886719 244.644531 C 250.171875 244.644531 364.328125 234.949219 378.542969 117.960938 C 391.8125 8.703125 310.242188 0.0234375 217.195312 0.0234375 Z M 308.882812 112.367188 C 304.171875 153.683594 267.570312 179.777344 228.066406 179.777344 L 111.226562 179.777344 L 118.359375 142.8125 L 215.386719 142.8125 L 224.082031 96.785156 L 127.246094 96.785156 L 133.121094 66.34375 L 242.929688 66.34375 C 273.003906 66.34375 313.597656 71.054688 308.882812 112.367188 Z M 308.882812 112.367188 "/>
  </g>
</svg>

<svg xmlns="http://www.w3.org/2000/svg" viewBox="0 0 384 384"><path d="M217.195.023H78.035L59.207 96.785H18.965l-8.695 46.028h39.976L3.383 383.62h68.492l26.828-138.976h102.184c49.285 0 163.441-9.696 177.656-126.684C391.813 8.703 310.243.023 217.195.023zm91.688 112.344c-4.711 41.317-41.313 67.41-80.817 67.41h-116.84l7.133-36.964h97.028l8.695-46.028h-96.836l5.875-30.441H242.93c30.074 0 70.668 4.71 65.953 46.023zm0 0"/></svg>
